assets/images/MailIcon_1.svg

<svg id="MailIcon_1" xmlns="http://www.w3.org/2000/svg" width="11.2" height="7.71" viewBox="0 0 11.2 7.71">
  <path id="Path_15138" data-name="Path 15138" d="M1.04.45a.591.591,0,0,0-.59.59V6.67a.591.591,0,0,0,.59.59h9.12a.591.591,0,0,0,.59-.59V1.04a.591.591,0,0,0-.59-.59Zm9.12,7.26H1.04A1.046,1.046,0,0,1,0,6.67V1.04A1.046,1.046,0,0,1,1.04,0h9.12A1.046,1.046,0,0,1,11.2,1.04V6.67a1.046,1.046,0,0,1-1.04,1.04" fill="#615d69"/>
  <path id="Path_15139" data-name="Path 15139" d="M5.6,5.41a.591.591,0,0,1-.41-.16L.22.75A.224.224,0,0,1,.21.43.233.233,0,0,1,.53.41L5.5,4.92a.166.166,0,0,0,.21,0L10.68.41a.227.227,0,1,1,.3.34L6.01,5.25a.661.661,0,0,1-.41.16" fill="#615d69"/>
  <path id="Path_15140" data-name="Path 15140" d="M.48,7.48a.22.22,0,0,1-.15-.06A.224.224,0,0,1,.32,7.1L3.68,3.57a.226.226,0,0,1,.33.31L.64,7.41a.2.2,0,0,1-.16.07" fill="#615d69"/>
  <path id="Path_15141" data-name="Path 15141" d="M10.72,7.48a.2.2,0,0,1-.16-.07L7.19,3.88a.226.226,0,1,1,.33-.31L10.88,7.1a.233.233,0,0,1-.01.32.22.22,0,0,1-.15.06" fill="#615d69"/>
</svg>

<?xml version="1.0" encoding="utf-8"?>
<!-- Generator: Adobe Illustrator 26.2.1, SVG Export Plug-In . SVG Version: 6.00 Build 0)  -->
<svg version="1.1" id="Layer_1" xmlns="http://www.w3.org/2000/svg" xmlns:xlink="http://www.w3.org/1999/xlink" x="0px" y="0px"
	 viewBox="0 0 11.2 7.71" style="enable-background:new 0 0 11.2 7.71;" xml:space="preserve">
<style type="text/css">
	.st0{fill:#615D69;}
</style>
<g>
	<path class="st0" d="M1.04,0.45c-0.32,0-0.59,0.26-0.59,0.59v5.63c0,0.32,0.26,0.59,0.59,0.59h9.12c0.32,0,0.59-0.26,0.59-0.59
		V1.04c0-0.32-0.26-0.59-0.59-0.59H1.04z M10.16,7.71H1.04C0.47,7.71,0,7.24,0,6.67V1.04C0,0.47,0.47,0,1.04,0h9.12
		c0.57,0,1.04,0.47,1.04,1.04v5.63C11.2,7.24,10.73,7.71,10.16,7.71"/>
	<path class="st0" d="M5.6,5.41c-0.15,0-0.29-0.05-0.41-0.16l-4.97-4.5c-0.09-0.09-0.1-0.23-0.01-0.32c0.08-0.09,0.23-0.1,0.32-0.02
		L5.5,4.92c0.06,0.05,0.15,0.05,0.21,0l4.97-4.51c0.09-0.08,0.23-0.08,0.32,0.02c0.08,0.09,0.08,0.23-0.02,0.32l-4.97,4.5
		C5.89,5.35,5.74,5.41,5.6,5.41"/>
	<path class="st0" d="M0.48,7.48c-0.05,0-0.11-0.02-0.15-0.06C0.24,7.33,0.23,7.19,0.32,7.1l3.36-3.53C3.77,3.48,3.91,3.48,4,3.56
		c0.09,0.09,0.09,0.23,0.01,0.32L0.64,7.41C0.6,7.46,0.54,7.48,0.48,7.48"/>
	<path class="st0" d="M10.72,7.48c-0.06,0-0.12-0.02-0.16-0.07L7.19,3.88C7.11,3.79,7.11,3.65,7.2,3.56
		c0.09-0.08,0.23-0.08,0.32,0.01l3.36,3.53c0.08,0.09,0.08,0.23-0.01,0.32C10.83,7.46,10.77,7.48,10.72,7.48"/>
</g>
</svg>
